X: 1
T:Kruzifunger
O:Germany
N:MMVM x 4 || MMMVV MMMMMVM x 2
M:2/4
Q:1/8=210
A:Bavaria
R:Zwiefache
K:Am
M:2/4
c4B4 |\
M:3/8
A4E2 |\
M:5/8
G3EG2 A4 |\
M:2/4
c4B4 |\
M:3/8
A4E2 |\
M:5/8
G3EG2 A4 ::
M:3/4
c2d2 e2 |\
M:3/8
f3ed2 | e3dc2 |\
M:2/4
d2B2 G2B2|\
M:3/4
c2d2 e2|\
M:5/8
f3ed2 c4 :|
